svg/distribution_box_outline.svg

<svg xmlns="http://www.w3.org/2000/svg" width="24" height="24" viewBox="0 0 24 24"><path d="M20 5v3h-2V5H7v11h11v-3h2v3a2 2 0 0 1-2 2h-4v3h-2v-3h-2v3H8v-3H7a2 2 0 0 1-2-2v-1H4v-3h1V9H4V6h1V5a2 2 0 0 1 2-2h11a2 2 0 0 1 2 2zm-2 7h2V9h-2zm-3-2h-2V7l-3 4h2v3z"/><path fill="none" d="M0 0h24v24H0z"/></svg>

<svg xmlns="http://www.w3.org/2000/svg" width="24" height="24" viewBox="0 0 24 24"><path d="M20,5V8H18V5H7V16H18V13h2v3a2,2,0,0,1-2,2H14v3H12V18H10v3H8V18H7a2,2,0,0,1-2-2V15H4V12H5V9H4V6H5V5A2,2,0,0,1,7,3H18A2,2,0,0,1,20,5Zm-2,7h2V9H18Zm-3-2H13V7l-3,4h2v3Z"/><rect width="24" height="24" fill="none"/></svg>
